static/images/biblio-logo.svg

<svg fill="none" height="24" viewBox="0 0 76 24" width="76" xmlns="http://www.w3.org/2000/svg"><path d="m13.0009 21v2h-2v-2h-7.99998c-.26522 0-.51958-.1053-.70711-.2929-.18754-.1875-.29289-.4419-.29289-.7071v-16c0-.26521.10535-.51957.29289-.7071.18753-.18754.44189-.2929.70711-.2929h5.99999c.56759-.00067 1.12879.11976 1.64609.35325.5174.23349.9789.57467 1.3539 1.00075.375-.42608.8366-.76726 1.3539-1.00075s1.0785-.35392 1.6461-.35325h6c.2652 0 .5196.10536.7071.2929.1876.18753.2929.44189.2929.7071v16c0 .2652-.1053.5196-.2929.7071-.1875.1876-.4419.2929-.7071.2929zm7-2v-14h-5c-.5304 0-1.0391.21072-1.4142.58579s-.5858.88378-.5858 1.41421v12zm-9 0v-12c0-.53043-.2107-1.03914-.5858-1.41421-.375-.37507-.88375-.58579-1.41419-.58579h-4.99999v14z" fill="#1e64c8"/><path d="m33.875 18h4.6328c2.4063 0 3.8516-1.2031 3.8516-3.1797v-.0156c0-1.4688-1.0156-2.5469-2.5391-2.7109v-.1329c1.1094-.1875 1.9766-1.2421 1.9766-2.41402v-.01563c0-1.72656-1.2735-2.80469-3.3907-2.80469h-4.5312zm4.125-9.84375c1.2969 0 2.0547.61719 2.0547 1.67969v.01562c0 1.09374-.8047 1.67184-2.3516 1.67184h-2.0781v-3.36715zm.0547 4.70315c1.6484 0 2.5156.625 2.5156 1.8359v.0156c0 1.211-.8359 1.8594-2.4141 1.8594h-2.5312v-3.7109zm7.2422-4.8594c.5781 0 1.0625-.47656 1.0625-1.05469 0-.58593-.4844-1.0625-1.0625-1.0625-.586 0-1.0625.47657-1.0625 1.0625 0 .57813.4765 1.05469 1.0625 1.05469zm-.8516 10h1.6875v-8.48438h-1.6875zm8.6641.1406c2.1406 0 3.5156-1.7109 3.5156-4.375v-.0156c0-2.6875-1.3594-4.38281-3.5156-4.38281-1.1641 0-2.1563.57812-2.6094 1.49221h-.125v-4.6719h-1.6953v11.8125h1.6953v-1.3359h.125c.4922.9297 1.4219 1.4765 2.6094 1.4765zm-.4766-1.4453c-1.414 0-2.289-1.1172-2.289-2.9297v-.0156c0-1.8125.875-2.9297 2.289-2.9297 1.4141 0 2.2656 1.1094 2.2656 2.9297v.0156c0 1.8203-.8515 2.9297-2.2656 2.9297zm6.0938 1.3047h1.6953v-11.8125h-1.6953zm5.1015-10c.5781 0 1.0625-.47656 1.0625-1.05469 0-.58593-.4844-1.0625-1.0625-1.0625-.5859 0-1.0625.47657-1.0625 1.0625 0 .57813.4766 1.05469 1.0625 1.05469zm-.8515 10h1.6875v-8.48438h-1.6875zm7.75.1641c2.4843 0 4.0078-1.6641 4.0078-4.3985v-.0156c0-2.7344-1.5313-4.39844-4.0078-4.39844-2.4844 0-4.0157 1.67184-4.0157 4.39844v.0156c0 2.7344 1.5235 4.3985 4.0157 4.3985zm0-1.4141c-1.461 0-2.2813-1.1016-2.2813-2.9844v-.0156c0-1.8828.8203-2.9844 2.2813-2.9844 1.4531 0 2.2812 1.1016 2.2812 2.9844v.0156c0 1.875-.8281 2.9844-2.2812 2.9844z" fill="#4d4d4d"/></svg>

<svg width="76" height="24" viewBox="0 0 76 24" fill="none" xmlns="http://www.w3.org/2000/svg">
<path d="M13.0009 21V23H11.0009V21H3.00092C2.7357 21 2.48134 20.8947 2.29381 20.7071C2.10627 20.5196 2.00092 20.2652 2.00092 20V4C2.00092 3.73479 2.10627 3.48043 2.29381 3.2929C2.48134 3.10536 2.7357 3 3.00092 3H9.00091C9.5685 2.99933 10.1297 3.11976 10.647 3.35325C11.1644 3.58674 11.6259 3.92792 12.0009 4.354C12.3759 3.92792 12.8375 3.58674 13.3548 3.35325C13.8721 3.11976 14.4333 2.99933 15.0009 3H21.0009C21.2661 3 21.5205 3.10536 21.708 3.2929C21.8956 3.48043 22.0009 3.73479 22.0009 4V20C22.0009 20.2652 21.8956 20.5196 21.708 20.7071C21.5205 20.8947 21.2661 21 21.0009 21H13.0009ZM20.0009 19V5H15.0009C14.4705 5 13.9618 5.21072 13.5867 5.58579C13.2116 5.96086 13.0009 6.46957 13.0009 7V19H20.0009ZM11.0009 19V7C11.0009 6.46957 10.7902 5.96086 10.4151 5.58579C10.0401 5.21072 9.53135 5 9.00091 5H4.00092V19H11.0009Z" fill="#1E64C8"/>
<path d="M33.875 18H38.5078C40.9141 18 42.3594 16.7969 42.3594 14.8203V14.8047C42.3594 13.3359 41.3438 12.2578 39.8203 12.0938V11.9609C40.9297 11.7734 41.7969 10.7188 41.7969 9.54688V9.53125C41.7969 7.80469 40.5234 6.72656 38.4062 6.72656H33.875V18ZM38 8.15625C39.2969 8.15625 40.0547 8.77344 40.0547 9.83594V9.85156C40.0547 10.9453 39.25 11.5234 37.7031 11.5234H35.625V8.15625H38ZM38.0547 12.8594C39.7031 12.8594 40.5703 13.4844 40.5703 14.6953V14.7109C40.5703 15.9219 39.7344 16.5703 38.1562 16.5703H35.625V12.8594H38.0547ZM45.2969 8C45.875 8 46.3594 7.52344 46.3594 6.94531C46.3594 6.35938 45.875 5.88281 45.2969 5.88281C44.7109 5.88281 44.2344 6.35938 44.2344 6.94531C44.2344 7.52344 44.7109 8 45.2969 8ZM44.4453 18H46.1328V9.51562H44.4453V18ZM53.1094 18.1406C55.25 18.1406 56.625 16.4297 56.625 13.7656V13.75C56.625 11.0625 55.2656 9.36719 53.1094 9.36719C51.9453 9.36719 50.9531 9.94531 50.5 10.8594H50.375V6.1875H48.6797V18H50.375V16.6641H50.5C50.9922 17.5938 51.9219 18.1406 53.1094 18.1406ZM52.6328 16.6953C51.2188 16.6953 50.3438 15.5781 50.3438 13.7656V13.75C50.3438 11.9375 51.2188 10.8203 52.6328 10.8203C54.0469 10.8203 54.8984 11.9297 54.8984 13.75V13.7656C54.8984 15.5859 54.0469 16.6953 52.6328 16.6953ZM58.7266 18H60.4219V6.1875H58.7266V18ZM63.8281 8C64.4062 8 64.8906 7.52344 64.8906 6.94531C64.8906 6.35938 64.4062 5.88281 63.8281 5.88281C63.2422 5.88281 62.7656 6.35938 62.7656 6.94531C62.7656 7.52344 63.2422 8 63.8281 8ZM62.9766 18H64.6641V9.51562H62.9766V18ZM70.7266 18.1641C73.2109 18.1641 74.7344 16.5 74.7344 13.7656V13.75C74.7344 11.0156 73.2031 9.35156 70.7266 9.35156C68.2422 9.35156 66.7109 11.0234 66.7109 13.75V13.7656C66.7109 16.5 68.2344 18.1641 70.7266 18.1641ZM70.7266 16.75C69.2656 16.75 68.4453 15.6484 68.4453 13.7656V13.75C68.4453 11.8672 69.2656 10.7656 70.7266 10.7656C72.1797 10.7656 73.0078 11.8672 73.0078 13.75V13.7656C73.0078 15.6406 72.1797 16.75 70.7266 16.75Z" fill="#4D4D4D"/>
</svg>
